!!!!SEGMENT: pl-cz--iii-257--005_gotschalk-filip--requiem-in-b-libera-eas.krn
!!!cenid: 18xx:103
!!!COM: Gotschalk, Filip
!!!COM-rismID: pe30020320
!!!CDT: 1760-1809
!!!CNT:
!!!OPR: Requiem in B
!!!OTL: Libera eas
!!!OMV: 005
!!!PDT:
!!!AGN: Sacred; Requiem
!!!SMS-siglum: PL-CZ
!!!SMS-shelfmark: III-257
!!!SMS-shelfwork: 001-005 M
!!!NIFC-rismSourceID: 300000378
!!!NIFC-rismChildID: 300000378
!!!NIFC-islandoraID: pl-cz:36878
!!!URL-pdf-islandora: https://repozytorium.nifc.pl/islandora/object/pl-cz%3A36878/datastream/PDF/view
!!!URL-scan: https://polish.musicsources.pl/pl/lokalizacje/galeria/rekopisy/6879/1 @EN{Scan on Polish Music Sources Website} @PL{Skany w portalu Dziedzictwo Muzyki Polskiej w otwartym dostępie}
!!!IIIF:
!!!ONB-nifc:
!!!AIN: 1 alto 1 bass 2 clars 2 empty 1 organ 1 tenor 2 violn 1 vox
!!!key:
**kern	**fb	**dynam	**kern	**dynam	**kern	**dynam	**kern	**text	**kern	**text	**kern	**text	**kern	**text	**kern	**kern	**kern	**kern
*part11	*	*part11	*part10	*part10	*part9	*part9	*part8	*part8	*part7	*part7	*part6	*part6	*part5	*part5	*part4	*part3	*part2	*part1
*staff11	*	*	*staff10	*	*staff9	*	*staff8	*staff8	*staff7	*staff7	*staff6	*staff6	*staff5	*staff5	*staff4	*staff3	*staff2	*staff1
*Iorgan	*	*	*Ivioln	*	*Ivioln	*	*Ibass	*	*Itenor	*	*Ialto	*	*Ivox	*	*Iempty	*Iempty	*Iclars	*Iclars
*I"Organo	*	*	*I"Violino Secondo	*	*I"Violino Primo	*	*I"Basso	*	*I"Tenore	*	*I"Alto	*	*I"Canto	*	*I"Cornu Secondo in B	*I"Cornu Primo in B	*I"Clarinetto Secondo	*I"Clarinetto Primo
*I'Org	*	*	*I'Vn II	*	*I'Vn I	*	*I'B	*	*I'T	*	*I'A	*	*I'C	*	*I'Cor II	*I'Cor I	*I'Cl II	*I'Cl I
*clefF4	*	*	*clefG2	*	*clefG2	*	*clefF4	*	*clefC4	*	*clefC3	*	*clefC1	*	*clefG2	*clefG2	*clefG2	*clefG2
*	*	*	*	*	*	*	*	*	*	*	*	*	*	*	*ITrd1c2	*ITrd1c2	*	*
*k[b-e-a-]	*	*	*k[b-e-a-]	*	*k[b-e-a-]	*	*k[b-e-a-]	*	*k[b-e-a-]	*	*k[b-e-a-]	*	*k[b-e-a-]	*	*k[b-e-]	*k[b-e-]	*k[b-e-a-]	*k[b-e-a-]
*E-:	*	*	*E-:	*	*E-:	*	*E-:	*	*E-:	*	*E-:	*	*E-:	*	*	*	*E-:	*E-:
*M2/4	*	*	*M2/4	*	*M2/4	*	*M2/4	*	*M2/4	*	*M2/4	*	*M2/4	*	*M2/4	*M2/4	*M2/4	*M2/4
=1	=1	=1	=1	=1	=1	=1	=1	=1	=1	=1	=1	=1	=1	=1	=1	=1	=1	=1
!LO:TX:a:t=problem:laseczki w dół z prawej/lewej strony	!	!	!	!	!	!	!LO:TX:a:t=problem:laseczki w dół z prawej/lewej strony	!	!	!	!	!	!	!	!	!	!	!
!LO:TX:a:t=problem:bemol A- przy kluczu oktawę wyżej	!	!	!LO:TX:a:t=problem:znaki przy kluczu w kolejności&colon; ee-, b-, a-	!	!LO:TX:a:t=problem:laseczki w dół z prawej/lewej strony	!	!LO:TX:a:t=problem:bemol A- przy kluczu oktawę wyżej	!	!	!	!	!	!	!	!	!	!	!LO:TX:a:t=problem:znaki przy kluczu w kolejności&colon; ee-, b-, a-
!LO:TX:a:t=Solo	!	!	!LO:TX:a:t=Solo	!	!LO:TX:a:t=Solo	!	!LO:TX:a:t=Solo	!	!LO:TX:a:t=problem:bemol E- przy kluczu oktawę niżej	!	!LO:TX:a:t=problem:znaki przy kluczu w kolejności&colon; ee- b-, a-	!	!LO:TX:a:t=problem:znaki przy kluczu w kolejności&colon; b-, a-, ee-	!	!	!	!LO:TX:a:t=problem:znaki przy kluczu w kolejności&colon; ee-, b-, a-	!LO:TX:a:B:t=Andante
8E-L	.	p	8gL	.	4.ee-	p	4.e-	Li-	2r	.	2r	.	2r	.	2r	2r	2r	2r
8G	.	.	8b-	.	.	.	.	.	.	.	.	.	.	.	.	.	.	.
8E-	.	.	8g	.	.	.	.	.	.	.	.	.	.	.	.	.	.	.
8GJ	.	.	8b-J	.	16b-LL\	.	16B-	-be-	.	.	.	.	.	.	.	.	.	.
.	.	.	.	.	16gJJ	.	16G	-ra	.	.	.	.	.	.	.	.	.	.
=2	=2	=2	=2	=2	=2	=2	=2	=2	=2	=2	=2	=2	=2	=2	=2	=2	=2	=2
8E-L	.	.	4e-	.	4e-	.	(>4E-	li-	2r	.	2r	.	2r	.	2r	2r	2r	2r
8GJ	.	.	.	.	.	.	.	.	.	.	.	.	.	.	.	.	.	.
!LO:TX:a:t=problem:niejednoznaczny zapis artykulacji	!	!	!	!	!	!	!	!	!	!	!	!	!	!	!	!	!	!
16E-'LL	.	.	16e-LL	.	16e-LL	.	16E-LL	.	.	.	.	.	.	.	.	.	.	.
16F'	.	.	16f	.	16f	.	16FJJ)	.	.	.	.	.	.	.	.	.	.	.
16G'	.	.	16g	.	16g	.	16G	-be-	.	.	.	.	.	.	.	.	.	.
16An'JJ	.	.	16anJJ	.	16anJJ	.	16An	-ra	.	.	.	.	.	.	.	.	.	.
=3	=3	=3	=3	=3	=3	=3	=3	=3	=3	=3	=3	=3	=3	=3	=3	=3	=3	=3
!	!	!	!LO:TX:a:t=problem:laseczki w dół z prawej/lewej strony	!	!	!	!	!	!	!	!	!	!	!	!	!	!	!
16B-LL	.	.	16b-LL\	.	16b-LL\	.	16B-LL	e-	2r	.	2r	.	2r	.	2r	2r	2r	2r
16AnJ	.	.	16anJ	.	16anJ	.	16AnJJ	.	.	.	.	.	.	.	.	.	.	.
8B-J	.	.	8b-J	.	8b-J	.	8B-	-as	.	.	.	.	.	.	.	.	.	.
16B-LL	.	.	16b-LL	.	16bb-LL	.	4r	.	.	.	.	.	.	.	.	.	.	.
16F	.	.	16f	.	16ff	.	.	.	.	.	.	.	.	.	.	.	.	.
16D	.	.	16d	.	16dd	.	.	.	.	.	.	.	.	.	.	.	.	.
16FJJ	.	.	16fJJ	.	16ffJJ	.	.	.	.	.	.	.	.	.	.	.	.	.
!	!	!	!LO:LB:g=original	!	!	!	!	!	!	!	!	!	!	!	!	!	!	!
=4	=4	=4	=4	=4	=4	=4	=4	=4	=4	=4	=4	=4	=4	=4	=4	=4	=4	=4
8r	.	.	8B-L 8f	.	4.aa-X	.	4.A-X	li-	2r	.	2r	.	2r	.	2r	2r	2r	2r
8B-L	7	.	8B- 8f	.	.	.	.	.	.	.	.	.	.	.	.	.	.	.
!LO:TX:a:t=problem:niejednoznaczny zapis łuku	!	!	!	!	!	!	!	!	!	!	!	!	!	!	!	!	!	!
(>8d	.	.	8B- 8f	.	.	.	.	.	.	.	.	.	.	.	.	.	.	.
8B-J)	.	.	8B-J 8a-	.	16ffLL	.	16F	-be-	.	.	.	.	.	.	.	.	.	.
.	.	.	.	.	16ddJJ	.	16D	-ra	.	.	.	.	.	.	.	.	.	.
!LO:LB:g=original	!	!	!	!	!LO:LB:g=original	!	!LO:LB:g=original	!	!	!	!	!	!	!	!	!	!	!
=5	=5	=5	=5	=5	=5	=5	=5	=5	=5	=5	=5	=5	=5	=5	=5	=5	=5	=5
8A-L	4 2	.	8B-L 8f	.	4.b-	.	4.BB-	li-	2r	.	2r	.	2r	.	2r	2r	2r	2r
16FL	.	.	8B- 8f	.	.	.	.	.	.	.	.	.	.	.	.	.	.	.
16DJJ	.	.	.	.	.	.	.	.	.	.	.	.	.	.	.	.	.	.
8BB-L	.	.	8B- 8f	.	.	.	.	.	.	.	.	.	.	.	.	.	.	.
16CL	.	.	8B-J 8a-	.	16ccLL	.	16C	-be-	.	.	.	.	.	.	.	.	.	.
16DJJ	.	.	.	.	16ddJJ	.	16D/	-ra	.	.	.	.	.	.	.	.	.	.
=6	=6	=6	=6	=6	=6	=6	=6	=6	=6	=6	=6	=6	=6	=6	=6	=6	=6	=6
8E-L	.	.	16gLL	.	16ee-LL	.	16E-LL	e-	2r	.	2r	.	4r	.	2r	2r	2r	2r
.	.	.	16fJ	.	16ddJ	.	16DJJ	.	.	.	.	.	.	.	.	.	.	.
8GJ	.	.	8gJ	.	8ee-J	.	8E-	-as	.	.	.	.	.	.	.	.	.	.
16B-LL	.	.	16e-LL	.	16ee-LL	.	4r	.	.	.	.	.	8r	.	.	.	.	.
16G	.	.	16g	.	16gg	.	.	.	.	.	.	.	.	.	.	.	.	.
!	!	!	!	!	!	!	!	!	!	!	!	!	!LO:TX:a:t=problem:laseczki w dół z prawej/lewej strony	!	!	!	!	!
16B-	.	.	16b-	.	16bb-	.	.	.	.	.	.	.	8b-	de	.	.	.	.
16GJJ	.	.	16gJJ	.	16ggJJ	.	.	.	.	.	.	.	.	.	.	.	.	.
=7	=7	=7	=7	=7	=7	=7	=7	=7	=7	=7	=7	=7	=7	=7	=7	=7	=7	=7
8E-L	.	.	8e-L	.	4ee-	.	8r	.	8r	.	8r	.	4ee-	O-	2r	2r	2r	2r
!	!	!	!	!	!	!	!	!	!	!	!LO:TX:a:t=problem:laseczki w dół z prawej/lewej strony	!	!	!	!	!	!	!
8F	.	.	8g	.	.	.	16E-LL	de	16GLL	De	8g	De	.	.	.	.	.	.
.	.	.	.	.	.	.	16FJJ	.	16A-JJ	.	.	.	.	.	.	.	.	.
8G	6	.	8g	.	8b-L	.	8G	o-	8B-/	o-	8g	o-	8b-	-re	.	.	.	.
8E-J	7-	.	8b-J	.	[8dd-XJ	.	16E-	-re	16G	-re	16g	-re	[8dd-X	le-	.	.	.	.
.	.	.	.	.	.	.	16G	le-	16B-/	le-	16g	le-	.	.	.	.	.	.
=8	=8	=8	=8	=8	=8	=8	=8	=8	=8	=8	=8	=8	=8	=8	=8	=8	=8	=8
!	!	!	!	!	!	!	!	!	!LO:TX:a:t=problem:laseczki w dół z prawej/lewej strony	!	!	!	!	!	!	!	!	!
*	*	*	*tremolo	*	*	*	*	*	*	*	*	*	*	*	*	*	*	*
8A-L	.	.	8e-L	.	16dd-LL]	.	8A-	-o-	16B-LL	-o-	8e-	-o-	16dd-LL]	-o-	2r	2r	8r	8r
.	.	.	.	.	16ccJ	.	.	.	16cJJ	.	.	.	16ccJJ	.	.	.	.	.
8e-	.	.	8e-	.	8ccJ	.	8A-	-nis	8c	-nis	8e-	-nis	8cc	-nis	.	.	16a-LL	16ccLL
.	.	.	.	.	.	.	.	.	.	.	.	.	.	.	.	.	16a-JJ	16ccJJ
8c	.	.	8e-	.	8ccL	.	4r	.	4r	.	4r	.	8r	.	.	.	8a-	8cc
8A-J	.	.	8e-J	.	8ccJ	.	.	.	.	.	.	.	8cc	de	.	.	8r	8r
*	*	*	*Xtremolo	*	*	*	*	*	*	*	*	*	*	*	*	*	*	*
!	!	!	!	!	!	!	!	!	!	!	!LO:LB:g=original	!	!LO:LB:g=original	!	!	!	!	!
=9	=9	=9	=9	=9	=9	=9	=9	=9	=9	=9	=9	=9	=9	=9	=9	=9	=9	=9
8FL	.	.	8anL\	.	4ff	.	8r	.	8r	.	8r	.	4ff	o-	2r	2r	2r	2r
8G	.	.	8a	.	.	.	16FLL	de	16AnLL	de	8an	de	.	.	.	.	.	.
.	.	.	.	.	.	.	16GJJ	.	16B-JJ	.	.	.	.	.	.	.	.	.
!	!	!	!	!	!	!	!LO:LB:g=original	!	!	!	!	!	!	!	!	!	!	!
8An	6	.	8a	.	8ccL	.	8An	o-	8c	o-	8a	o-	8cc	-re	.	.	.	.
8FJ	7	.	8ccJ	.	8ee-J	.	16F	-re	16A	-re	16a	-re	8ee-	le-	.	.	.	.
.	.	.	.	.	.	.	16A	le-	16c	le-	16a	le-	.	.	.	.	.	.
!	!	!	!LO:LB:g=original	!	!	!	!	!	!LO:LB:g=original	!	!	!	!	!	!	!	!	!
=10	=10	=10	=10	=10	=10	=10	=10	=10	=10	=10	=10	=10	=10	=10	=10	=10	=10	=10
!LO:TX:a:t=problem:niejednoznaczny zapis artykulacji w tt. 10-14	!	!	!	!	!LO:TX:a:t=problem:niejednoznaczny zapis łuku	!	!	!	!	!	!	!	!	!	!	!	!	!
8B-'L	.	.	8fL	.	(>16ee-LL	.	8B-	-o-	16cLL	-o-	8f	-o-	16ee-LL	-o-	2r	2r	8r	8r
.	.	.	.	.	16ddnJ	.	.	.	16dJJ	.	.	.	16ddnJJ	.	.	.	.	.
8f'	.	.	8fJ	.	8ddJ)	.	8B-	-nis	8d	-nis	8f	-nis	8dd	-nis	.	.	16b-LL/	16ddLL
.	.	.	.	.	.	.	.	.	.	.	.	.	.	.	.	.	16b-JJ	16ddJJ
8d'	.	.	(<16e-LL	.	(>16ccLL	.	8r	.	8r	.	4r	.	8r	.	.	.	8b-/	8dd
.	.	.	16d)	.	16b-)	.	.	.	.	.	.	.	.	.	.	.	.	.
!	!	!	!	!	!LO:TX:a:t=problem:niejednoznaczny zapis artykulacji	!	!	!	!	!	!	!	!LO:TX:a:t=Solo	!	!	!	!	!
8B-'J	.	.	16d'	.	16b-'	.	16B-	ne	16B-	ne	.	.	16b-	ne	.	.	8r	8r
.	.	.	16d'JJ	.	16b-'JJ	.	16B-	ab-	16B-	ab-	.	.	16b-	ab-	.	.	.	.
!LO:LB:g=original	!	!	!	!	!LO:LB:g=original	!	!	!	!	!	!	!	!	!	!	!	!	!
=11	=11	=11	=11	=11	=11	=11	=11	=11	=11	=11	=11	=11	=11	=11	=11	=11	=11	=11
8E-'L	.	.	8e-L	.	8ee-L	.	8e-	-sor-	8e-	-sor-	2r	.	8ee-	-sor-	2r	2r	2r	2r
16B-'L	.	.	8b-	.	16b-L	.	16B-	-be-	16B-	-be-	.	.	16b-	-be-	.	.	.	.
16B-'JJ	.	.	.	.	16b-JJ	.	16B-	-at	16B-	-at	.	.	16b-	-at	.	.	.	.
8G'L	.	.	8g	.	8gL	.	8G	e-	8G	e-	.	.	8g	e-	.	.	.	.
8E-'J	.	.	8e-J	.	8e-J	.	8E-	-as	8E-	-as	.	.	8e-/	-as	.	.	.	.
=12	=12	=12	=12	=12	=12	=12	=12	=12	=12	=12	=12	=12	=12	=12	=12	=12	=12	=12
16B-'LL	.	.	4B-	.	16b-LL/	.	16B-	tar-	16B-	tar-	4r	.	16b-	tar-	16B-'LL	16B-'LL	4r	4r
16B-'J	.	.	.	.	16b-J	.	16B-	-ta-	16B-	-ta-	.	.	16b-	-ta-	16B-'J	16B-'J	.	.
8B-'J	.	.	.	.	8b-J	.	8B-	-rus	16B-	-rus	.	.	8b-	-rus	8B-'J	8B-'J	.	.
.	.	.	.	.	.	.	.	.	16r	.	.	.	.	.	.	.	.	.
!	!	!	!	!	!	!	!LO:PB:g=original	!	!LO:LB:g=original	!	!	!	!LO:LB:g=original	!	!	!	!	!
16B-LL	.	.	8r	.	8r	.	8r	.	8r	.	8r	.	8r	.	4r	4r	8r	8r
16A-X	.	.	.	.	.	.	.	.	.	.	.	.	.	.	.	.	.	.
16G	.	.	16b-LL	f	16b-LL	f	16B-	ne	16B-	ne	16b-	ne	16b-	ne	.	.	16b-LL	16b-'LL
16FJJ	.	.	16b-JJ	.	16b-JJ	.	16B-	ab-	16B-	ab-	16b-	ab-	16b-	ab-	.	.	16b-JJ	16b-'JJ
=13	=13	=13	=13	=13	=13	=13	=13	=13	=13	=13	=13	=13	=13	=13	=13	=13	=13	=13
8E-'L	.	.	8ee-L	.	8ee-L	.	8e-	-sor-	8e-	-sor-	8ee-	-sor-	8ee-	-sor-	2r	2r	8ee-'L\	8ee-'L
16B-'L	.	.	16b-L	.	16b-L	.	16B-	-be-	16B-	-be-	16b-	-be-	16b-	-be-	.	.	16b-'	16bb-'
16B-'JJ	.	.	16b-JJ	.	16b-JJ	.	16B-	-at	16B-	-at	16b-	-at	16b-	-at	.	.	16b-'	16bb-'
!	!	!	!	!	!	!	!	!	!	!	!LO:LB:g=original	!	!	!	!	!	!	!
8G'L	.	.	8gL	.	8gL	.	8G	e-	8G	e-	8g	e-	8g/	e-	.	.	8g	8gg'
8E-'J	.	.	8e-J	.	8e-J	.	8E-	-as	8E-	-as	8e-	-as	8e-	-as	.	.	8e-J	8ee-'J
=14	=14	=14	=14	=14	=14	=14	=14	=14	=14	=14	=14	=14	=14	=14	=14	=14	=14	=14
16B-'LL	.	.	16b-LL	.	16b-LL/	.	16B-	tar-	16B-	tar-	16b-	Tar-	16b-	tar-	16B-LL	16B-'LL	16b-LL/	16bb-'LL
16B-'J	.	.	16b-J	.	16b-J	.	16B-	-ta-	16B-	-ta-	16b-	-ta-	16b-	-ta-	16B-J	16B-'J	16b-J	16bb-'J
8B-'J	.	.	8b-J	.	8b-J	.	8B-	-rus	8B-	-rus	8b-	-rus	8b-	-rus	8B-J	8B-'J	8b-J	8bb-'J
16B-LL	.	.	8r	.	8r	.	4r	.	4r	.	8r	.	8r	.	4r	4r	4r	4r
16A-X	.	.	.	.	.	.	.	.	.	.	.	.	.	.	.	.	.	.
16G	.	.	16gLL	.	16b-LL	.	.	.	.	.	16gLL	ne	16b-LL	ne	.	.	.	.
16FJJ	.	.	16fJJ	.	16a-JJ	.	.	.	.	.	16fJJ	.	16a-JJ	.	.	.	.	.
!	!	!	!LO:LB:g=original	!	!	!	!	!	!LO:LB:g=original	!	!	!	!LO:LB:g=original	!	!	!	!LO:LB:g=original	!
=15	=15	=15	=15	=15	=15	=15	=15	=15	=15	=15	=15	=15	=15	=15	=15	=15	=15	=15
8E-L	.	.	8e-L	.	8gL	.	2r	.	2r	.	8e-L	ca-	8gL	ca-	2r	2r	2r	2r
8E-	4 2	.	8f	.	8a-	.	.	.	.	.	8fJ	.	8a-J	.	.	.	.	.
8E-	5 3	.	8g	.	8b-	.	.	.	.	.	8g	-dant	8b-	-dant	.	.	.	.
8A-J	.	.	8a-J	.	8ccJ	.	.	.	.	.	8a-	ne	8cc	ne	.	.	.	.
!	!	!	!	!	!LO:LB:g=original	!	!	!	!	!	!	!	!	!	!	!	!	!
=16	=16	=16	=16	=16	=16	=16	=16	=16	=16	=16	=16	=16	=16	=16	=16	=16	=16	=16
8B-L	.	.	8fL	.	8ddL	.	8r	.	8r	.	8f	ca-	8dd	ca-	2r	2r	2r	2r
8cJ	.	.	8gJ	.	8ee-J	.	16r	.	16r	.	8g	-dant	8ee-	-dant	.	.	.	.
.	.	.	.	.	.	.	16c	ne	16e-	ne	.	.	.	.	.	.	.	.
!	!	!	!LO:TX:a:t=problem:triola nieoznaczona	!	!LO:TX:a:t=problem:triola oznaczona łukiem	!	!	!	!	!	!	!	!	!	!	!	!	!
8B-L	.	.	24fLL	.	(>24ddLL	.	8B-	ca-	8d	ca-	4r	.	4r	.	.	.	.	.
.	.	.	24g	.	24ee-	.	.	.	.	.	.	.	.	.	.	.	.	.
.	.	.	24a-J	.	24ffJ)	.	.	.	.	.	.	.	.	.	.	.	.	.
8cJ	.	.	8gJ	.	8ee-J	.	8c	-dant	8e-	-dant	.	.	.	.	.	.	.	.
!LO:LB:g=original	!	!	!	!	!	!	!	!	!	!	!	!	!	!	!	!	!	!
=17	=17	=17	=17	=17	=17	=17	=17	=17	=17	=17	=17	=17	=17	=17	=17	=17	=17	=17
*2\right	*	*	*	*	*	*	*	*	*	*	*	*	*	*	*	*	*	*
*tremolo	*	*	*	*	*	*	*	*	*	*	*	*	*	*	*	*	*	*
8A-L	.	.	8e-L	.	4cc	.	4A-	in	4e-	in	4a-	in	4cc	in	2r	2r	4r	4r
8A-	.	.	8e-J	.	.	.	.	.	.	.	.	.	.	.	.	.	.	.
8A-	.	.	8ccL	.	8aa-L	.	8A-	ob-	8e-	ob-	8cc	ob-	8aa-	ob-	.	.	8r	8r
8A-J	.	.	16b-L	.	16ggL	.	8A-	-scu-	(>8e-	-scu-	16b-LL	.	16ggLL	.	.	.	(<16b-LL	16ggLL
.	.	.	16a-JJ	.	16ffJJ	.	.	.	.	.	16a-JJ	.	16ffJJ	.	.	.	16a-JJ)	16ffJJ
!	!	!	!	!	!	!	!LO:LB:g=original	!	!	!	!LO:LB:g=original	!	!	!	!	!	!	!LO:LB:g=original
=18	=18	=18	=18	=18	=18	=18	=18	=18	=18	=18	=18	=18	=18	=18	=18	=18	=18	=18
*Xtremolo	*	*	*	*	*	*	*2\right	*	*2\right	*	*	*	*	*	*	*	*	*
8B-L\	6 4	.	(<16gLL	.	4ee-	.	2B-T	.	2B-)	.	4g	-scu-	4ee-	-scu-	2r	2r	4g	4ee-
.	.	.	16b-)	.	.	.	.	.	.	.	.	.	.	.	.	.	.	.
8B-\	.	.	(<16g	.	.	.	.	.	.	.	.	.	.	.	.	.	.	.
.	.	.	16b-JJ)	.	.	.	.	.	.	.	.	.	.	.	.	.	.	.
8BB-/	5 3	.	(<16a-LL	.	(>16ggLL	.	.	.	.	.	16b-LL	.	16ggLL	.	.	.	(<16b-LL	(>16ggLL
.	.	.	16b-)	.	16ff	.	.	.	.	.	16a-	.	16ff	.	.	.	16a-	16ff
8BB-J/	.	.	(<16a-	.	16ee-	.	.	.	.	.	16g	.	16ee-	.	.	.	16g	16ee-
.	.	.	16b-JJ)	.	16ffJJ)	.	.	.	.	.	16a-JJ	.	16ffJJ	.	.	.	16a-JJ)	16ffJJ)
=19	=19	=19	=19	=19	=19	=19	=19	=19	=19	=19	=19	=19	=19	=19	=19	=19	=19	=19
!LO:TX:a:t=problem:niejednoznaczny zapis artykulacji w t. 19	!	!	!	!	!	!	!	!	!	!	!	!	!	!	!	!	!	!
!LO:TX:a:t=Tutti	!	!	!	!	!	!	!	!	!	!	!	!	!	!	!	!	!	!
8E-'L	.	.	4g	.	4ee-	.	8E-	-rum	4B-	-rum	4g	-rum	4ee-	-rum.	2r	2r	4g	4ee-
8B-'	.	.	.	.	.	.	8B-	quam	.	.	.	.	.	.	.	.	.	.
8G'	.	.	4r	.	4r	.	8G	o-	4r	.	4r	.	4r	.	.	.	4r	4r
8E-'J	.	.	.	.	.	.	8E-	-lim	.	.	.	.	.	.	.	.	.	.
!	!	!	!LO:LB:g=original	!	!	!	!	!	!LO:LB:g=original	!	!	!	!LO:PB:g=original	!	!	!	!	!
=20	=20	=20	=20	=20	=20	=20	=20	=20	=20	=20	=20	=20	=20	=20	=20	=20	=20	=20
8.B-L	.	.	2r	.	8r	.	8.B-	A-	2r	.	2r	.	8r	.	2r	2r	2r	2r
.	.	.	.	.	8ffL	.	.	.	.	.	.	.	8ff	qu(am)	.	.	.	.
16B-Jk	.	.	.	.	.	.	16B-	-bra-	.	.	.	.	.	.	.	.	.	.
4B-	.	.	.	.	8dd	.	4B-	-hae	.	.	.	.	8dd	o-	.	.	.	.
.	.	.	.	.	8b-J	.	.	.	.	.	.	.	8b-	-lim	.	.	.	.
!	!	!	!	!	!	!	!	!	!	!	!	!	!	!	!LO:LB:g=original	!	!	!
=21	=21	=21	=21	=21	=21	=21	=21	=21	=21	=21	=21	=21	=21	=21	=21	=21	=21	=21
8r	.	.	8r	.	8.ee-L	.	8r	.	8.c	A-	8r	.	8.ee-	A-	8.ccL	8.ee-L	2r	2r
8cL	3	.	8ccL\	.	.	.	8An	quam	.	.	8cc	quam	.	.	.	.	.	.
.	.	.	.	.	16ee-Jk	.	.	.	16c	-bra-	.	.	16ee-	-bra-	16ccJk	16ee-Jk	.	.
8An	3	.	8an	.	4ee-	.	8A	o-	8c	-hae	8an	o-	4ee-	-hae	4cc	4ee-	.	.
8FJ	3	.	8fJ	.	.	.	8A	-lim	8r	.	8f	-lim	.	.	.	.	.	.
!	!	!	!	!	!	!	!LO:LB:g=original	!	!	!	!	!	!	!	!	!	!	!
=22	=22	=22	=22	=22	=22	=22	=22	=22	=22	=22	=22	=22	=22	=22	=22	=22	=22	=22
8B-L	.	.	8.fL	.	8.ddL	.	8.B-	A-	8r	.	8.f	A-	8.dd	A-	8.b-L	8.ddL	2r	2r
8f	.	.	.	.	.	.	.	.	8f	quam	.	.	.	.	.	.	.	.
.	.	.	16fJk	.	16ddJk	.	16B-	-bra-	.	.	16f	-bra-	16dd	-bra-	16b-Jk	16ddJk	.	.
8d	.	.	4f	.	4dd	.	4B-	-hae	8d	o-	4f	-hae	4dd	-hae	4b-	4dd	.	.
8B-J	.	.	.	.	.	.	.	.	8B-	-lim	.	.	.	.	.	.	.	.
!	!	!	!	!	!LO:LB:g=original	!	!	!	!	!	!	!	!	!	!	!LO:LB:g=original	!	!
=23	=23	=23	=23	=23	=23	=23	=23	=23	=23	=23	=23	=23	=23	=23	=23	=23	=23	=23
*tremolo	*	*	*	*	*	*	*	*	*	*	*	*	*	*	*	*	*	*
8A-XL	4 2	.	8B-L 8f	.	4.dd	.	4.A-X	pro-	4.B-	pro-	4.f	pro-	4.dd	pro-	8r	8r	2r	2r
8A-	.	.	8B- 8f	.	.	.	.	.	.	.	.	.	.	.	16B-LL	16ddLL	.	.
.	.	.	.	.	.	.	.	.	.	.	.	.	.	.	16B-JJ	16ddJJ	.	.
8A-	.	.	8B- 8f	.	.	.	.	.	.	.	.	.	.	.	4B-	4dd	.	.
!	!	!	!	!	!	!	!	!	!LO:TX:a:t=problem:niejednoznaczny zapis łuku	!	!	!	!	!	!	!	!	!
8A-J	.	.	8B-J 8f	.	16ccLL	.	8A-	-mi-	(>8B-	-mi-	8f	-mi-	16ccLL	-mi-	.	.	.	.
.	.	.	.	.	16ddJJ	.	.	.	.	.	.	.	16ddJJ	.	.	.	.	.
!LO:LB:g=original	!	!	!	!	!	!	!	!	!	!	!LO:PB:g=original	!	!	!	!	!	!	!
=24	=24	=24	=24	=24	=24	=24	=24	=24	=24	=24	=24	=24	=24	=24	=24	=24	=24	=24
*Xtremolo	*	*	*	*	*	*	*	*	*	*	*	*	*	*	*	*	*	*
8GL	6	.	8B-L	.	4ee-	.	8GL	-si-	8B-)	-si-	4g	-si-	4ee-	-si-	2r	2r	4r	4r
8E-	.	.	8B-	.	.	.	8E-J	.	8B-	-sti	.	.	.	.	.	.	.	.
8E-	.	.	8B-	.	8b-L	.	8E-	-sti	4B-	et	8g	-sti	8b-	-sti	.	.	8r	8r
8E-J	.	.	8B-J	.	8b-J	.	8E-	et	.	.	8g	et	8b-	et	.	.	8gg	8bb-
!	!	!	!	!	!	!	!	!	!LO:LB:g=original	!	!	!	!LO:LB:g=original	!	!	!	!	!
=25	=25	=25	=25	=25	=25	=25	=25	=25	=25	=25	=25	=25	=25	=25	=25	=25	=25	=25
8DL	6 5	.	8B-L 8f	.	4a-	.	4D/	sae-	4B-	sae-	4f	sae-	4a-	sae-	2r	2r	4ff	4aa-
8D	.	.	8B-J 8f	.	.	.	.	.	.	.	.	.	.	.	.	.	.	.
8E-	.	.	8e-L	.	8gL	.	8E-	-mi-	8B-	-mi-	8e-	-mi-	8g/	-mi-	.	.	8ee-L	8ggL
8E-J	.	.	8e-J	.	8gJ	.	8E-	-ni	8B-	-ni	8e-	-ni	8g/	-ni	.	.	8ee-J	8ggJ
=26	=26	=26	=26	=26	=26	=26	=26	=26	=26	=26	=26	=26	=26	=26	=26	=26	=26	=26
!	!	!	!LO:TX:a:t=problem:łuki prawdopodobnie zapisane ołówkiem w tt. 26-27	!	!	!	!	!	!	!	!	!	!	!	!	!	!	!
8A-L	4 2	.	(>16a-LL\	.	4dd	.	4A-	sae-	4B-	sae-	4f	sae-	4dd	sae-	2r	2r	4a-	(>16ddLL
.	.	.	16b-	.	.	.	.	.	.	.	.	.	.	.	.	.	.	16ff
8A-	.	.	16a-	.	.	.	.	.	.	.	.	.	.	.	.	.	.	16dd
.	.	.	16b-JJ)	.	.	.	.	.	.	.	.	.	.	.	.	.	.	16ffJJ)
8G	6	.	(>16gLL\	.	8ee-L	.	8G	-mi-	8B-	-mi-	8g	-mi-	8ee-	-mi-	.	.	8gL	8ee-L
.	.	.	16b-	.	.	.	.	.	.	.	.	.	.	.	.	.	.	.
8A-J	.	.	16g	.	8ee-J	.	8A-	-ni	8B-	-ni	8g	-ni	8ee-	-ni	.	.	16gL	8ee-J
.	.	.	16b-JJ)	.	.	.	.	.	.	.	.	.	.	.	.	.	16b-JJ	.
!	!	!	!LO:LB:g=original	!	!	!	!	!	!	!	!	!	!	!	!	!	!	!
=27	=27	=27	=27	=27	=27	=27	=27	=27	=27	=27	=27	=27	=27	=27	=27	=27	=27	=27
*	*	*	*	*	*tremolo	*	*	*	*	*	*2\right	*	*	*	*	*	*	*
8B-L\	6 4	.	(<16gLL	.	16ee-LL	.	2B-	e-	(<4G	e-	2b-	e-	4ee-	e-	2r	2r	4g	4ee-
.	.	.	16b-	.	16ee-	.	.	.	.	.	.	.	.	.	.	.	.	.
8B-\	.	.	16g	.	16ee-	.	.	.	.	.	.	.	.	.	.	.	.	.
.	.	.	16b-JJ)	.	16ee-JJ	.	.	.	.	.	.	.	.	.	.	.	.	.
8BB-/	5 3	.	(<16fLL	.	16ddLL	.	.	.	4F)	.	.	.	4dd	.	.	.	4f	4dd
.	.	.	16b-)	.	16dd	.	.	.	.	.	.	.	.	.	.	.	.	.
8BB-J/	.	.	(<16f	.	16dd	.	.	.	.	.	.	.	.	.	.	.	.	.
.	.	.	16b-JJ)	.	16ddJJ	.	.	.	.	.	.	.	.	.	.	.	.	.
=28	=28	=28	=28	=28	=28	=28	=28	=28	=28	=28	=28	=28	=28	=28	=28	=28	=28	=28
!	!	!	!	!	!	!	!	!	!	!	!	!	!	!	!	!	!	!LO:TX:a:t=problem:laseczki półnut z lewej strony
*	*	*	*	*	*Xtremolo	*	*	*	*	*	*	*	*	*	*	*	*	*
*	*	*	*	*	*2\right	*	*	*	*	*	*	*	*2\right	*	*	*	*2\right	*2\right
2E-	.	.	2B- 2g	.	2ee-	.	2E-	-jus.	2G	-jus.	2b-	-jus.	2ee-	-jus.	2r	2r	2g	2ee-
==	==	==	==	==	==	==	==	==	==	==	==	==	==	==	==	==	==	==
*-	*-	*-	*-	*-	*-	*-	*-	*-	*-	*-	*-	*-	*-	*-	*-	*-	*-	*-
!!!system-decoration: [(s1,s2)][(s3,s4)][(s5,s6,s7,s8)][(s9,s10)][(s11)]
!!!RDF**kern: > = above
!!!RDF**kern: < = below
!!!ENC: Anna Matuszewska
!!!END: 2020-03-24
!!!YEC: Copyright 2022 Narodowy Instytut Fryderyka Chopina (https://polishscores.org)
!!!YEM: License CC-BY-4.0 (https://creativecommons.org/licenses/by/4.0)
